apps/www/public/images/ga/enterprise/pwc--light.svg

<svg width="387" height="293" viewBox="0 0 387 293" fill="none" xmlns="http://www.w3.org/2000/svg">
<g clip-path="url(#clip0_868_2065)">
<g clip-path="url(#clip1_868_2065)">
<path d="M386.5 125.811H246.099V89.8706H386.5V125.811Z" fill="#E669A2"/>
<path d="M368.264 125.811H246.099V35.9213H368.264V125.811Z" fill="#F3BE26"/>
<path d="M317.792 125.811H246.099V0H317.792V125.811Z" fill="#EE9C34"/>
<path d="M331.896 125.811H246.099V14.0386H331.896V125.811Z" fill="#F3BC87"/>
<path d="M246.078 14.0597V125.799H317.783V14.0597H246.078Z" fill="#E3721C"/>
<path d="M174.206 125.811H246.098V143.782H174.206V125.811Z" fill="#AD1B02"/>
<path d="M246.078 35.9014V125.799H331.937V35.9014H246.078Z" fill="#E88D14"/>
<path d="M246.078 35.9014V125.799H317.783V35.9014H246.078Z" fill="#D85604"/>
<path d="M290.932 125.811H246.099V71.8574H290.932V125.811Z" fill="#C14303"/>
<path d="M246.078 89.8964V125.799H368.305V89.8964H246.078Z" fill="#DB4E18"/>
<path d="M246.078 89.8964V125.799H331.937V89.8964H246.078Z" fill="#D1390D"/>
<path d="M246.078 89.8964V125.799H317.783V89.8964H246.078Z" fill="#C22303"/>
<path d="M246.078 89.8964V125.799H290.976V89.8964H246.078Z" fill="#AD1B02"/>
<path d="M261.729 193.5C249.497 195.675 242.973 204.918 242.973 220.958C242.973 237.269 251.671 248.144 264.447 248.144C270.7 248.144 276.136 245.969 287.553 240.26C287.553 253.581 287.553 253.581 287.553 253.581C273.69 260.105 265.535 261.737 254.662 261.737C242.429 261.737 233.731 258.746 226.935 251.406C219.867 244.338 216.062 235.095 216.062 224.492C216.062 201.384 233.459 185.345 258.739 185.345C275.321 185.345 287.009 193.229 287.009 204.375C287.009 211.715 281.573 216.88 273.69 216.88C269.612 216.88 266.35 215.521 261.729 213.074" fill="#171717"/>
<path d="M200.567 224.492C211.712 210.627 215.79 204.918 215.79 198.122C215.79 191.326 210.353 185.345 202.742 185.345C198.393 185.345 194.315 187.791 192.412 189.966C192.412 218.511 192.412 218.511 192.412 218.511C174.2 242.978 174.2 242.978 174.2 242.978C174.2 187.52 174.2 187.52 174.2 187.52C156.803 187.52 156.803 187.52 156.803 187.52C127.988 235.095 127.988 235.095 127.988 235.095C127.988 187.52 127.988 187.52 127.988 187.52C118.203 187.52 118.203 187.52 118.203 187.52C91.835 193.5 91.835 193.5 91.835 193.5C91.835 200.297 91.835 200.297 91.835 200.297C106.242 201.656 106.242 201.656 106.242 201.656C106.242 260.649 106.242 260.649 106.242 260.649C124.455 260.649 124.455 260.649 124.455 260.649C152.181 214.977 152.181 214.977 152.181 214.977C152.181 260.649 152.181 260.649 152.181 260.649C172.569 260.649 172.569 260.649 172.569 260.649" fill="#171717"/>
<path d="M36.6535 251.406C38.8282 251.406 39.3718 251.406 40.731 251.406C55.4099 251.406 63.5648 242.435 63.5648 224.492C63.5648 209.54 57.0408 201.384 44.8084 201.384C43.1775 201.384 40.731 201.656 36.6535 202.472V251.406ZM36.6535 283.485C48.6141 286.204 48.6141 286.204 48.6141 286.204C48.6141 293 48.6141 293 48.6141 293C1.58732 293 1.58733 293 1.58733 293C1.58733 286.204 1.58733 286.204 1.58733 286.204C12.4606 283.485 12.4606 283.485 12.4606 283.485C12.4606 201.384 12.4606 201.384 12.4606 201.384C0.499999 201.384 0.5 201.384 0.5 201.384C0.5 194.588 0.5 194.588 0.5 194.588C29.0423 185.888 29.0423 185.888 29.0423 185.888C36.6535 185.888 36.6535 185.888 36.6535 185.888C36.6535 195.675 36.6535 195.675 36.6535 195.675C49.9732 187.52 54.5944 186.16 61.662 186.16C77.4282 186.16 89.3887 200.841 89.3887 221.23C89.3887 244.61 73.3507 260.649 48.8859 260.649C46.1676 260.649 41.5465 260.377 36.6535 260.105" fill="#171717"/>
</g>
</g>
<defs>
<clipPath id="clip0_868_2065">
<rect width="387" height="293" fill="white"/>
</clipPath>
<clipPath id="clip1_868_2065">
<rect width="386" height="293" fill="white" transform="translate(0.5)"/>
</clipPath>
</defs>
</svg>

<svg xmlns="http://www.w3.org/2000/svg" width="387" height="293" fill="none" viewBox="0 0 387 293"><g clip-path="url(#a)"><g clip-path="url(#b)"><path fill="#e669a2" d="M386.5 125.811H246.099v-35.94H386.5z"/><path fill="#f3be26" d="M368.264 125.811H246.099v-89.89h122.165z"/><path fill="#ee9c34" d="M317.792 125.811h-71.693V0h71.693z"/><path fill="#f3bc87" d="M331.896 125.811h-85.797V14.039h85.797z"/><path fill="#e3721c" d="M246.078 14.06v111.739h71.705V14.059z"/><path fill="#ad1b02" d="M174.206 125.811h71.892v17.971h-71.892z"/><path fill="#e88d14" d="M246.078 35.901V125.8h85.859V35.901z"/><path fill="#d85604" d="M246.078 35.901V125.8h71.705V35.901z"/><path fill="#c14303" d="M290.932 125.811h-44.833V71.857h44.833z"/><path fill="#db4e18" d="M246.078 89.896V125.8h122.227V89.896z"/><path fill="#d1390d" d="M246.078 89.896V125.8h85.859V89.896z"/><path fill="#c22303" d="M246.078 89.896V125.8h71.705V89.896z"/><path fill="#ad1b02" d="M246.078 89.896V125.8h44.898V89.896z"/><path fill="#171717" d="M261.729 193.5c-12.232 2.175-18.756 11.418-18.756 27.458 0 16.311 8.698 27.186 21.474 27.186 6.253 0 11.689-2.175 23.106-7.884v13.321c-13.863 6.524-22.018 8.156-32.891 8.156-12.233 0-20.931-2.991-27.727-10.331-7.068-7.068-10.873-16.311-10.873-26.914 0-23.108 17.397-39.147 42.677-39.147 16.582 0 28.27 7.884 28.27 19.03 0 7.34-5.436 12.505-13.319 12.505-4.078 0-7.34-1.359-11.961-3.806M200.567 224.492c11.145-13.865 15.223-19.574 15.223-26.37s-5.437-12.777-13.048-12.777c-4.349 0-8.427 2.446-10.33 4.621v28.545L174.2 242.978V187.52h-17.397l-28.815 47.575V187.52h-9.785l-26.368 5.98v6.797l14.407 1.359v58.993h18.213l27.726-45.672v45.672h20.388M36.654 251.406h4.077c14.679 0 22.834-8.971 22.834-26.914 0-14.952-6.524-23.108-18.757-23.108-1.63 0-4.077.272-8.154 1.088zm0 32.079 11.96 2.719V293H1.587v-6.796l10.874-2.719v-82.101H.5v-6.796l28.542-8.7h7.611v9.787c13.32-8.155 17.941-9.515 25.009-9.515 15.766 0 27.727 14.681 27.727 35.07 0 23.38-16.038 39.419-40.503 39.419-2.718 0-7.34-.272-12.233-.544"/></g></g><defs><clipPath id="a"><path fill="#fff" d="M0 0h387v293H0z"/></clipPath><clipPath id="b"><path fill="#fff" d="M.5 0h386v293H.5z"/></clipPath></defs></svg>
